X:160
T:Care Thou Canker. RH.160
T:Favourite Catch,A RH.160
R:Air
S:Rev.R.Harrison’s MS,c1815,Cumbria
O:England
A:Temple Sowerby,Cumbria
Z:vmp.Simon Wilson. Review PJH, 2008.
M:C
L:1/4
Q:2/4=60
K:D
a>bad’|a>ggf|d>ffe|e>ggf|\
a>b a/b/c’/d’/|a>ggf|d>f f/e/g/e/|dc{c}d2||!
f>gff|f>eed|A>ABB|c>eed|\
f>gff|f>eed|AABg/e/|dc{c}d2||!
d>ddd|AAB2|F>FGG|AAD2|\
d>ddd|AAB2|F>FGG|AAD2|]

